X: 16
%% Copyright 1947, 1950 Encoh et cie
T: Autumn leaves
M:4/4
L:1/4
C:Joseph Kosma & Johnny Mercer
Q:1/4=150
K:Gm
%%text (medium)
%%vskip 20
P: A
GAB || "Cm7"e4- | "F7"eFGA | "Bbmaj7"d2d2- | "Ebmaj7"dEFG |
w:The fall-ing leaves* drift by my win-dow,* the au-tumn
"Am7b5"c4- | "D7"cD=E^F | "Gm6"B4 | zGAB ||
w:leaves* og red and gold. I see your
P: A
"Cm7"e4- | "F7"eFGA | "Bbmaj7"d2d2- | "Ebmaj7"dEFG |
w:lips,* the sum-mer kiss-es,* the sun-burned
"Am7b5"c4- | "D7"cAcB | "Gm6"G4 | z2^FG ||
w:hands* I used to hold. Since you
P: B
"Am7b5"ADA2- | "D7"AAGA | "Gm6"B4- | BBAB |
w:went a-way* the days grow long,* and soon I'll
"Cm7"c4- | "F7"cFfe | "Bbmaj7"d4- | "Ebmaj7"d2^cd ||
w:hear* old win-ter's song.* But I
P: A'
"Am7b5"eecc | "D7"A3e | "Gm7"d2 "(C7"d2- | "Fm7"d2 "Bb7)"G2 |
w:miss you most of all my dar-ling,* when
"Ebmaj7"c3B | "D7"A2BD | "Gm6"G4- | G2z2 |]
w:au-tumn leaves start to fall.*


